X:74
%%scale 0.6
M:4/4
K:Dmaj
ABAF Adfd|AFED FDFA|dBAF Adfd|gefd edBA|dBAF Adfd|AFED FDFA|dBAF Adfd|gefd edBA:|
f2af bfaf|edfd edBA|f2af bfaf|gefd edBA|f2af bfaf|edfd edBA|dBAF Adfd|gefd edBA:|
